X:1
T:Frieden der Nacht
T:Carl Reinecke
T:Georg Scherer
T:Frieden der Nacht
T:CPDL   —   Creative Commons Attribution Non Commercial 3.0
T:CPDL   —   Creative Commons Attribution Non Commercial 3.0
T:CPDL   —   Creative Commons Attribution Non Commercial 3.0
T:CPDL   —   Creative Commons Attribution Non Commercial 3.0
C:Carl Reinecke
Z:Georg Scherer
Z:CPDL   —   Creative Commons Attribution Non Commercial 3.0
%%score [ 1 2 3 4 ]
L:1/8
Q:1/4=44
M:2/4
K:A
V:1 treble nm="Sopran"
V:2 treble nm="Alt"
V:3 treble-8 nm="Tenor"
V:4 bass nm="Bass"
V:1
"^Andante"!p! E | EA B>c | A2 EF | EA D E/D/ | C3 D | EA c>B | A2 GF | BE F G/F/ | E2 z |!pp! E | %10
w: Der|Tag ist längst ge-|schie- den und|von dem Ster- nen- *|zelt sinkt|tie- fer, heil'- ger|Frie- den her-|ab auf Haus und _|Feld.|Auf|
 FF GG | A2 EE | FF GG | A3 A |!<(! BB c!<)!c | e2 dc |[Q:1/4=40]"^poco rit." BF!>(! B>c!>)! | B3 | %18
w: mü- de Au- gen|lin- de legt|sü- ßen Schlaf die|Nacht; im|Käm- mer- lein beim|Kin- de hält|Got- tes En- gel|Wacht.|
!p![Q:1/4=44]"^a tempo" G/F/ | EA B>c | A2 EF | EA D E/D/ | C2 z D | EA c>B |!>(! A2!>)! E!pp!F | %25
w: Schon *|hat sein Lied ge-|sun- gen das|Kind- lein sanft zur _|Ruh'; die|Sai- ten sind ver-|klun- gen, nun|
[Q:1/4=40]"^poco rit." EC C>B, | !fermata!A,3 |] %27
w: deckt er's lei- se|zu.|
V:2
!p! B, | A,C ED | CD ED | C>C B,B, | A,3 A, | E2 E2 | E^D ED | EE ^DD | B,2 z |!pp! A, | DD EE | %11
w: Der|Tag ist längst ge-|schie- * den und|von dem Ster- nen-|zelt sinkt|tie- fer,|Frie- * den her-|ab auf Haus und|Feld.|Auf|mü- de Au- gen|
 ED CE | E D/C/ B,E | E3 C |!<(! E=G E!<)!E | F2 FF | FF!>(! FF!>)! | E3 |!p! E/D/ | CC DE | %20
w: lin- * de legt|sü- ßen _ Schlaf die|Nacht; im|Käm- mer- lein beim|Kin- de hält|Got- tes En- gel|Wacht.|Schon *|hat sein Lied ge-|
 C2 CD | C>C B,B, | A,2 z A, | A,C D>D |!>(! C2!>)! C!pp!D | CC C>B, | !fermata!A,3 |] %27
w: sun- gen das|Kind- lein sanft zur|Ruh'; die|Sai- ten sind ver-|klun- gen, nun|deckt er's lei- se|zu.|
V:3
!p! G | AE EG | A2 AA | AE FG | Ec AA | A2 G2 | AB BB | BG A B/A/ | AF G |!pp! A | AB BB | A2 AA | %12
w: Der|Tag ist längst ge-|schie- den und|von dem Ster- nen-|zelt da sin- ket|tie- fer,|Frie- * den her-|ab auf Haus und _|Feld. _ _|Auf|mü- de Au- gen|lin- de legt|
 AA E e/d/ | cd/c/ BA |!<(! =GE A!<)!G | Fc F^A | BB!>(! AA!>)! | G3 |!p! E | EE FG | AE AA | %21
w: sü- ßen Schlaf die _|Nacht; _ _ _ im|Käm- mer- lein beim|Kin- * de hält|Got- tes En- gel|Wacht.|Schon|hat sein Lied ge-|sun- * gen das|
 AE FG | E C/F/ EE | E>E FG |!>(! AE!>)! A!pp!A | AA GG | !fermata!A3 |] %27
w: Kind- lein sanft zur|Ruh', zur _ Ruh'; die|Sai- ten sind ver-|klun- * gen, nun|deckt er's lei- se|zu.|
V:4
!p! E,/D,/ | C,A,, G,,E, | A,,B,, C,D, | E,E, E,E, | A,,3 B,, | C,2 D,2 | C,F, E,A,, | %7
w: Der _|Tag ist längst ge-|schie- * den und|von dem Ster- nen-|zelt sinkt|tie- fer,|Frie- * den her-|
 G,,C, B,,B,, | E,3 |!pp! C, | D,B,, E,D, | C,B,, A,,C, | D,D, E,E, | A,,3 A,, | %14
w: ab auf Haus und|Feld.|Auf|mü- de Au- gen|lin- * de legt|sü- ßen Schlaf die|Nacht; im|
!<(! A,,A,, A,,!<)!A,, | ^A,,2 B,,C, | D,D,!>(! ^D,D,!>)! | E,F, E, |!p! E, | A,,A,, A,,A,, | %20
w: Käm- mer- lein beim|Kin- de hält|Got- tes En- gel|Wacht. _ _|Schon|hat sein Lied ge-|
 A,,2 A,,D, | E,E, E,E, | A,,2 z B,, | C,A,, A,,>A,, |!>(! A,,2!>)! A,,!pp!D, | E,>E, E,E, | %26
w: sun- gen das|Kind- lein sanft zur|Ruh'; die|Sai- ten sind ver-|klun- gen, nun|deckt er's lei- se|
 !fermata!A,,3 |] %27
w: zu.|

